X:14795
T:Sally Gardens
S:Black Book
M:C
K:G
|:G2 DG B2 GB | dBeB dBAB | d2 Bd egdB | AGAB GEDE|\
G2 DG B2 GB | dBeB dBAB | d2 Bd efge | dBAB G4::\
dggf g2 dg | g2 bg aged | eaag a2 ea | a2 bg ageg |\
dggf g2 dg | g2 bg ageg | d2 Bd efge | dBAB G4:|
